X:1
T:Title
%%score { 1 | 2 }
L:1/8
M:6/8
K:Eb
V:1 treble nm="Grand Piano"
V:2 bass 
V:1
 z3 z2[Q:1/4=90] G | G2 G GFG | [GB]3 [EG]2 [EG] | [GB]2 G GFE |[M:5/8] [DF]-[DF]- [DF]3 | %5
[M:1/8] G |[M:3/4] GG GG FG | A3 c2 A | G2 B[GB] [FA][DF] |[M:5/8] E-E- E3 |[M:1/8] [GB] | %11
[M:3/4] [Ge]2 [Ge][Af] [Ae][Ac] | [GB]3 [EG]2 [GB] | c=B c[ce] [Bd][Ac] |[M:5/8] [GB]-[GB]- [GB]3 | %15
[M:1/8] [GB] |[M:3/4] [Ge]2 [Ge][Af] [Ae][Ac] | [GB]3 [Ge]2 A | G2 B[GB] [FA][DF] | %19
[M:5/8] E-E- E3 |] %20
V:2
 z3 z2 [E,B,E] | [E,B,E]2 [E,B,E] [E,B,E][E,B,D][E,B,E] | [E,E]3 [E,B,]2 [E,B,] | %3
 [E,B,]2 [E,B,E] [E,B,E][E,A,D][E,G,] |[M:5/8] [B,,B,]-[B,,B,]- [B,,B,]3 |[M:1/8] [E,B,E] | %6
[M:3/4] [E,B,E][E,B,E] [E,B,E][E,B,E] [E,B,D][E,B,E] | [A,CE]3 [A,E]2 [A,CE] | %8
 [B,E]2 [B,G][K:bass][B,,B,] [B,,B,][B,,A,] |[M:5/8] [E,G,]-[E,G,]- [E,G,]3 |[M:1/8] [E,B,] | %11
[M:3/4] [E,B,]2 [E,B,][E,C] [E,E][E,E] | [E,E]3 [E,B,]2 [E,E] | %13
 [A,EA][A,EA] [A,EA][A,E] [A,E][K:bass][A,E] |[M:5/8] [E,E]-[E,E]- [E,E]3 |[M:1/8] [E,E] | %16
[M:3/4] [E,B,]2 [E,B,][E,C] [E,C][E,E] | [E,E]3 [E,B,]2[K:treble] [A,CE] | %18
 [B,E]2 [B,G][K:bass][B,,B,] [B,,B,][B,,A,] |[M:5/8] [E,G,]-[E,G,]- [E,G,]3 |] %20

